ix/unlock_broken.svg

<svg viewBox="0 0 24 24" fill="none" xmlns="http://www.w3.org/2000/svg" height="1em" width="1em">
  <path d="M9.5 16C9.5 17.38 10.62 18.5 12 18.5C13.38 18.5 14.5 17.38 14.5 16C14.5 14.62 13.38 13.5 12 13.5" stroke="#292D32" stroke-width="1.5" stroke-linecap="round" stroke-linejoin="round"/>
  <path d="M22 17V15C22 11 21 10 17 10H7C3 10 2 11 2 15V17C2 21 3 22 7 22H17C18.76 22 19.94 21.81 20.71 21.25" stroke="#292D32" stroke-width="1.5" stroke-linecap="round" stroke-linejoin="round"/>
  <path d="M6 10V8C6 4.69 7 2 12 2C16.5 2 18 4 18 7" stroke="#292D32" stroke-width="1.5" stroke-linecap="round" stroke-linejoin="round"/>
</svg>

<svg viewBox="0 0 24 24" fill="none" xmlns="http://www.w3.org/2000/svg" height="1em" width="1em">
  <path d="M9.5 16a2.5 2.5 0 0 0 5 0 2.5 2.5 0 0 0-2.5-2.5" stroke="#292D32" stroke-width="1.5" stroke-linecap="round" stroke-linejoin="round"/>
  <path d="M22 17v-2c0-4-1-5-5-5H7c-4 0-5 1-5 5v2c0 4 1 5 5 5h10c1.76 0 2.94-.19 3.71-.75M6 10V8c0-3.31 1-6 6-6 4.5 0 6 2 6 5" stroke="#292D32" stroke-width="1.5" stroke-linecap="round" stroke-linejoin="round"/>
</svg>
